X: 1
T: Dick Gossip's
R: reel
M: 4/4
L: 1/8
K: Dmaj
|:F2 AF GFED|DFAF GFED|EDEF GFED|~E3 F GFED|
|F2 AF GFED|DFAF GFED|cdef gece|1 eddc d2 AG:|2 eddc d2 ef||
|:gB (3BBB gBaB|gB (3BBB gfed|(3cBA eA fAeA|(3Bcd ef gfef|
|gB (3BBB gBaB|gB (3BBB gfed|cdef gece|1 eddc d2 ef:|2 eddc d2 AG|


Tune 408	Setting 28753

